X: 2163
T: Auld Lang Syne
R: reel
M: 4/4
K: Cmajor
G2|c3c d2e2|G3A G2E2|c3e d2c2|A6 cA|
G2E2 D2C2|D2C2 D2E2|G4 A3G|G6 G2|
c3c d2e2|G3A G2E2|c3e d2c2|A6 cA|
G2E2 D2C2|D2C2 D2E2|G4 A3G|c6:|

